X:1
T:Title
%%score [ ( 1 2 ) ( 3 4 ) ]
L:1/8
Q:1/4=60
M:6/8
K:C
V:1 treble-8 nm="Tenor I/II"
V:2 treble-8 
V:3 bass nm="Bass I/II"
V:4 bass 
V:1
"^Slowly" f/f/ | fBc d!fermata!gf | ec^d e<cf/f/ | fBc d!fermata!gf | ec^d (e<c) z | (a3 ^ge) z | %6
w: When I|Dream of Old E- rin, I'm|dream- ing of you, * With your|sweet, rogu- ish smile, and your|true eyes of blue; *||
w: |||||Hm _ _|
!mf! (f2 ^d e2) c/c/ | e^f=f!<(! e!<)!!fermata!^g>"^rall."e | ^ff=f !fermata!e2 |] %9
w: |||
w: Hm _ _ _ _|_ _ _ _ _ _||
V:2
 B/c/ | dG^F =F!fermata!ed | cEA G2 B/c/ | dG^F =F!fermata!ed | cEA G2 A/B/ | cAc B^G z/ G/ | %6
w: ||||* * * * For my|love, like the Sham- rock, each|
 AFc G2 E/F/ | GAB c!fermata!e>c | dAB !fermata!c2 |] %9
w: day strong- er grew, When I|Dream of Old E- rin, I'm|dream- ing of you.|
V:3
 G,/A,/ | B,D,D, G,!fermata!B,G, | G,G,^F, (G,<E,)G,/A,/ | B,D,D, G,!fermata!B,G, | %4
w: ||||
w: ||||
 G,G,^F, (G,<E,) z | (C2 D/^D/ EB,) z | (CA,A, C2) G,/G,/ | CCG,!<(! G,!<)!!fermata!B,>"^rall."A, | %8
w: |Hm _ _ _ _|Hm _ _ _ _ _|_ _ _ _ _ _|
w: |Hm _ _ _ _|Hm _ _ _ _ _|_ _ _ _ _ _|
 A,CD !fermata!G,2 |] %9
w: |
w: |
V:4
 D,/D,/ | G,,G,,A,, B,,!fermata!G,,B,, | C,C,C, C,2 D,/D,/ | G,,G,,A,, B,,!fermata!G,,B,, | %4
 C,C,C, C,2 x | (E,F,^F, E,2) x | (F,C,F, C,2) z | C,_E,D, C,!fermata!=E,>A,, | %8
 D,D,G, !fermata!C,2 |] %9

